assets/svg/icon_post_regulartext_on.svg

<svg width="24" height="24" viewBox="0 0 24 24" fill="none" xmlns="http://www.w3.org/2000/svg">
<path fill-rule="evenodd" clip-rule="evenodd" d="M12 21C7.75736 21 5.63604 21 4.31802 19.682C3 18.364 3 16.2426 3 12C3 7.75736 3 5.63604 4.31802 4.31802C5.63604 3 7.75736 3 12 3C16.2426 3 18.364 3 19.682 4.31802C21 5.63604 21 7.75736 21 12C21 16.2426 21 18.364 19.682 19.682C18.364 21 16.2426 21 12 21ZM10.3624 7.4C10.0185 7.39994 9.69697 7.39989 9.43432 7.43913C9.1376 7.48345 8.83278 7.58824 8.58912 7.85897C8.35361 8.12065 8.27046 8.43248 8.23442 8.73035C8.20073 9.00877 8.20075 9.3539 8.20078 9.74362L8.20078 10.2C8.20078 10.5314 8.46941 10.8 8.80078 10.8C9.13215 10.8 9.40078 10.5314 9.40078 10.2V9.77778C9.40078 9.34345 9.40182 9.07209 9.42573 8.8745C9.43694 8.7818 9.45097 8.72838 9.4623 8.69777C9.47186 8.67194 9.47869 8.66437 9.48096 8.66185C9.48205 8.66054 9.4835 8.65882 9.49072 8.65552C9.50402 8.64944 9.53813 8.63694 9.61161 8.62596C9.7749 8.60157 10.0049 8.6 10.4008 8.6H11.4008V15.4H10.0008C9.66941 15.4 9.40078 15.6686 9.40078 16C9.40078 16.3314 9.66941 16.6 10.0008 16.6H14.4008C14.7322 16.6 15.0008 16.3314 15.0008 16C15.0008 15.6686 14.7322 15.4 14.4008 15.4H12.6008V8.6H13.6008C13.9967 8.6 14.2267 8.60157 14.39 8.62596C14.4634 8.63694 14.4975 8.64944 14.5108 8.65552C14.5181 8.65882 14.5189 8.65978 14.52 8.6611C14.5222 8.66361 14.5297 8.67194 14.5393 8.69777C14.5506 8.72838 14.5646 8.7818 14.5758 8.8745C14.5997 9.07209 14.6008 9.34345 14.6008 9.77778V10.2C14.6008 10.5314 14.8694 10.8 15.2008 10.8C15.5322 10.8 15.8008 10.5314 15.8008 10.2L15.8008 9.74362C15.8008 9.35392 15.8008 9.00876 15.7671 8.73035C15.7311 8.43249 15.648 8.12065 15.4124 7.85897C15.1688 7.58824 14.864 7.48345 14.5672 7.43913C14.3046 7.39989 13.9831 7.39994 13.6392 7.4H10.3624Z" fill="#0166FF"/>
</svg>

<svg xmlns="http://www.w3.org/2000/svg" width="24" height="24" fill="none"><path fill="#0166FF" fill-rule="evenodd" d="M12 21c-4.243 0-6.364 0-7.682-1.318S3 16.242 3 12s0-6.364 1.318-7.682S7.758 3 12 3s6.364 0 7.682 1.318S21 7.758 21 12s0 6.364-1.318 7.682S16.242 21 12 21M10.362 7.4c-.344 0-.665 0-.928.04-.296.043-.601.148-.845.419-.235.262-.319.573-.355.871a9 9 0 0 0-.033 1.014v.456a.6.6 0 1 0 1.2 0v-.422c0-.435 0-.706.025-.904a1 1 0 0 1 .036-.176c.01-.026.017-.034.019-.036q0-.002.01-.006a.5.5 0 0 1 .12-.03c.164-.024.394-.026.79-.026h1v6.8H10a.6.6 0 1 0 0 1.2h4.4a.6.6 0 1 0 0-1.2h-1.8V8.6h1c.396 0 .626.002.789.026a.5.5 0 0 1 .13.035c.002.003.01.01.02.037.01.03.025.084.036.176.024.198.025.47.025.904v.422a.6.6 0 1 0 1.2 0v-.456c0-.39 0-.735-.034-1.014-.036-.298-.119-.61-.355-.871-.243-.27-.548-.376-.845-.42-.262-.04-.584-.04-.928-.039z" clip-rule="evenodd"/></svg>
